X:15
T:Kiss the Maid Behind the Barrell
R:reel
O:Irish
D:An Historic Recording of Irish Music
N:single reel - played double on the recording
Z:Paul Stewart Cranford (P.S.C.), <http://www.cranfordpub.com>                        
L:1/8
Q:333
M:C|
K:G
~G2 BG DGBG|~G2 Bd cAFA|~G2 BG DGBc|defd (3(cBA) FA|
~G2 BG DGBG|~G2 Bd cAFA|G(B ~B2) d(B ~B2)|defd (3(cBA) FA||
||dggf ~g2 fg|adfd adfd|dggf ~g2 fe|defd (3(cBA) FA|
dggf ~g2 fg|adfd adfd|d(g ~g2) a(g ~g2)|defd (3(cBA) FA|]
